packages/core/src/svgs/tokens/mono/XSUSHI.svg

<svg width="24" height="24" viewBox="0 0 24 24" fill="none" xmlns="http://www.w3.org/2000/svg">
<path d="M6.32756 3.65991C6.8958 2.85049 7.99406 2.49401 9.41466 2.6093C11.3747 2.77342 13.9694 3.84286 16.4696 5.65466C18.9601 7.47587 20.7878 9.64414 21.5643 11.4747C22.1325 12.8042 22.1513 13.9807 21.5831 14.7895L17.682 20.3402C17.1137 21.1496 16.0054 21.5062 14.5948 21.3909C12.6347 21.2173 10.03 20.1573 7.53994 18.3361C5.03989 16.5243 3.22161 14.3561 2.43571 12.5253C1.86746 11.196 1.84865 10.0194 2.41689 9.21061L6.32756 3.65991ZM21.0437 14.3849C21.4984 13.7495 21.4037 12.8048 20.9584 11.7447C20.2102 10.0006 18.4584 7.94824 16.0719 6.2135C13.6953 4.47875 11.2236 3.44756 9.35825 3.29344C8.22171 3.19696 7.3217 3.40932 6.86757 4.05462L6.84816 4.09346C6.42226 4.73876 6.51697 5.65466 6.96228 6.69527C7.71052 8.44883 9.46229 10.5012 11.8389 12.2365C14.2159 13.9708 16.6878 15.0013 18.5531 15.156C19.6708 15.2432 20.5513 15.0402 21.0149 14.4331L21.0437 14.3849ZM14.9643 7.7847C16.1572 8.65178 17.0378 9.68244 17.4072 10.5595C17.6249 11.0513 17.682 11.4848 17.4643 11.783C17.2554 12.0818 16.8296 12.1689 16.309 12.1207C15.3712 12.0435 14.14 11.5231 12.9471 10.656C11.7535 9.78881 10.8729 8.76708 10.5035 7.89C10.2953 7.39881 10.2388 6.96527 10.4471 6.66645C10.6553 6.36761 11.0818 6.28114 11.6117 6.31938C12.54 6.40644 13.7807 6.91763 14.9643 7.7847Z" fill="white"/>
<path fill-rule="evenodd" clip-rule="evenodd" d="M21.5643 11.4747C21.6296 11.6271 21.6891 11.7819 21.7426 11.939C21.5573 11.8419 21.336 11.7748 21.0673 11.7454L20.9549 11.7372C20.2049 9.99415 18.4549 7.94529 16.0719 6.2135C15.3268 5.66964 14.5724 5.19495 13.8301 4.79473C12.2047 3.91826 10.638 3.39904 9.35783 3.29323C8.22131 3.19675 7.32189 3.4091 6.86717 4.05442L6.84776 4.09324C6.42186 4.73855 6.51657 5.65445 6.96188 6.69447C7.51899 8.00155 8.63395 9.47449 10.1495 10.8579C10.6678 11.3313 11.233 11.7943 11.8389 12.2365C13.7694 13.6448 15.7624 14.5895 17.4424 14.9778C16.7607 15.9489 16.0272 16.8095 15.0636 17.0025C14.2206 17.1855 13.3877 16.7972 12.6301 15.9054C12.3936 15.6408 12.17 15.339 11.9494 15.0407C11.4282 14.336 10.92 13.6501 10.2812 13.5053C9.36964 13.2867 8.50869 14.0973 7.64303 14.9124L7.6395 14.9157C6.96866 15.5472 6.296 16.1804 5.59401 16.3396C5.47755 16.3661 5.36107 16.3843 5.244 16.396C3.92457 15.0919 2.95513 13.7348 2.43571 12.5253C1.86746 11.1953 1.84865 10.0201 2.41689 9.21061L6.32756 3.65991C6.8958 2.85049 7.99406 2.49401 9.41466 2.6093C11.3747 2.77342 13.9701 3.84286 16.4701 5.65466C18.9601 7.47587 20.7878 9.64414 21.5643 11.4747Z" fill="white"/>
<path d="M5.8453 5.67446C5.92412 5.67093 5.99001 5.73329 5.99354 5.81269C5.99531 5.86153 5.99824 5.91035 6.00177 5.95917C6.00504 5.99699 5.99319 6.03455 5.96883 6.06365C5.94447 6.09277 5.90957 6.11103 5.87177 6.11447C5.853 6.11582 5.83412 6.11346 5.81625 6.10751C5.7984 6.10156 5.78188 6.09213 5.76766 6.07978C5.75346 6.06743 5.74183 6.05238 5.73345 6.03553C5.72506 6.01866 5.72009 6.00031 5.71883 5.98152C5.71472 5.92943 5.71158 5.87726 5.70941 5.82504C5.70749 5.78706 5.72072 5.74987 5.7462 5.72163C5.77169 5.6934 5.80732 5.67644 5.8453 5.67446ZM5.87353 6.12918C5.89213 6.12643 5.91107 6.1274 5.92929 6.13201C5.9475 6.13663 5.96462 6.1448 5.97966 6.15607C5.9947 6.16734 6.00736 6.18146 6.01691 6.19764C6.02646 6.21383 6.03271 6.23174 6.0353 6.25035C6.20472 7.38978 6.83532 8.50746 7.65475 9.53862C7.67848 9.56868 7.68955 9.6067 7.68559 9.64472C7.68164 9.68274 7.66297 9.71774 7.63357 9.74217C7.61911 9.75411 7.6024 9.76304 7.58443 9.76839C7.56647 9.77374 7.54762 9.77539 7.52898 9.77347C7.51036 9.77141 7.49231 9.76564 7.47592 9.75658C7.45953 9.74753 7.44513 9.73517 7.43356 9.72049C6.6012 8.67158 5.93472 7.50567 5.75412 6.29388C5.74819 6.25621 5.75742 6.21774 5.77981 6.18686C5.80218 6.15599 5.83589 6.13525 5.87353 6.12918ZM10.0724 12.2175C10.0844 12.2032 10.0992 12.1914 10.1158 12.1829C10.1323 12.1742 10.1505 12.1692 10.1691 12.1677C10.1877 12.1661 10.2064 12.1683 10.2243 12.1742C10.242 12.1801 10.2583 12.1893 10.2724 12.2017L10.3848 12.2998L10.5259 12.4205C10.555 12.4453 10.5733 12.4805 10.5767 12.5185C10.5803 12.5564 10.5688 12.5944 10.5448 12.624C10.5331 12.6386 10.5185 12.6507 10.5021 12.6596C10.4856 12.6685 10.4675 12.674 10.4489 12.6758C10.4303 12.6776 10.4115 12.6756 10.3936 12.6702C10.3757 12.6645 10.3592 12.6555 10.3448 12.6434L10.2006 12.5199L10.0871 12.421C10.0586 12.3956 10.041 12.3601 10.0383 12.3219C10.0355 12.2839 10.0477 12.2467 10.0724 12.2175ZM10.6148 12.6811C10.6261 12.6662 10.6403 12.6537 10.6565 12.6442C10.6727 12.6349 10.6907 12.6288 10.7092 12.6265C10.7277 12.6242 10.7467 12.6255 10.7646 12.6305C10.7828 12.6356 10.7995 12.6442 10.8142 12.6557C11.9849 13.5846 13.4101 14.3988 14.8261 14.9812C14.8614 14.9958 14.8894 15.0238 14.9041 15.0591C14.9189 15.0943 14.9192 15.1339 14.9049 15.1693C14.8982 15.1869 14.888 15.203 14.875 15.2166C14.8619 15.23 14.8463 15.2409 14.8291 15.2483C14.8118 15.2558 14.7933 15.2597 14.7745 15.2599C14.7557 15.2601 14.737 15.2565 14.7196 15.2494C13.2819 14.6576 11.8331 13.8305 10.6395 12.884C10.6098 12.8601 10.5905 12.8255 10.5859 12.7875C10.5813 12.7496 10.5917 12.7115 10.6148 12.6811ZM19.6379 15.9811C19.6443 16.0187 19.6355 16.0573 19.6134 16.0884C19.5913 16.1194 19.5578 16.1406 19.5203 16.147C19.4568 16.1573 19.3931 16.1662 19.3291 16.1735C19.3104 16.1756 19.2915 16.1738 19.2734 16.1684C19.2554 16.1632 19.2385 16.1543 19.224 16.1425C19.2093 16.1306 19.1972 16.1159 19.1883 16.0994C19.1794 16.0828 19.1739 16.0645 19.1721 16.0459C19.1677 16.0081 19.1784 15.9702 19.2019 15.9403C19.2253 15.9105 19.2597 15.8912 19.2974 15.8864C19.3579 15.8794 19.4168 15.8711 19.475 15.8617C19.4935 15.8588 19.5126 15.8596 19.5309 15.864C19.5491 15.8685 19.5663 15.8766 19.5815 15.8877C19.5966 15.8989 19.6094 15.913 19.6191 15.9291C19.6289 15.9453 19.6352 15.9626 19.6379 15.9811Z" fill="white"/>
</svg>

<svg xmlns="http://www.w3.org/2000/svg" width="24" height="24" fill="none" viewBox="0 0 24 24">
    <path fill="#fff" d="M6.328 3.66c.568-.81 1.666-1.166 3.087-1.05 1.96.163 4.554 1.233 7.055 3.045 2.49 1.82 4.318 3.99 5.094 5.82.569 1.33.587 2.506.02 3.315l-3.902 5.55c-.568.81-1.677 1.166-3.087 1.05-1.96-.173-4.565-1.233-7.055-3.054-2.5-1.812-4.318-3.98-5.104-5.81-.569-1.33-.587-2.507-.02-3.315zm14.716 10.725c.454-.636.36-1.58-.086-2.64-.748-1.744-2.5-3.797-4.886-5.531-2.377-1.735-4.848-2.766-6.714-2.92-1.136-.097-2.036.115-2.49.76l-.02.04c-.426.645-.331 1.56.114 2.601.749 1.754 2.5 3.806 4.877 5.541s4.849 2.765 6.714 2.92c1.118.087 1.998-.116 2.462-.723zm-6.08-6.6c1.193.867 2.074 1.897 2.443 2.774.218.492.275.926.057 1.224-.209.299-.634.386-1.155.338-.938-.078-2.169-.598-3.362-1.465s-2.074-1.889-2.443-2.766c-.209-.491-.265-.925-.057-1.224s.635-.385 1.165-.347c.928.087 2.169.599 3.352 1.466"/>
    <path fill="#fff" fill-rule="evenodd" d="M21.564 11.475q.098.228.179.464a1.9 1.9 0 0 0-.676-.194l-.112-.008c-.75-1.743-2.5-3.792-4.883-5.523a20 20 0 0 0-2.242-1.42c-1.625-.876-3.192-1.395-4.472-1.5-1.137-.097-2.036.115-2.49.76l-.02.04c-.426.645-.331 1.56.114 2.6.557 1.308 1.672 2.78 3.188 4.164a20 20 0 0 0 1.689 1.378c1.93 1.409 3.923 2.353 5.603 2.742-.681.97-1.415 1.832-2.378 2.025-.843.183-1.676-.206-2.434-1.098-.236-.264-.46-.566-.68-.864-.522-.705-1.03-1.39-1.669-1.536-.911-.218-1.772.592-2.638 1.407l-.003.004c-.671.631-1.344 1.264-2.046 1.424a3 3 0 0 1-.35.056c-1.32-1.304-2.289-2.661-2.808-3.87-.569-1.33-.587-2.506-.02-3.315L6.329 3.66c.568-.81 1.666-1.166 3.087-1.05 1.96.163 4.555 1.233 7.055 3.045 2.49 1.82 4.318 3.99 5.094 5.82" clip-rule="evenodd"/>
    <path fill="#fff" d="M5.845 5.674a.143.143 0 0 1 .149.139q.002.073.008.146a.144.144 0 0 1-.13.155.143.143 0 0 1-.153-.132l-.01-.157a.144.144 0 0 1 .136-.15m.029.455a.14.14 0 0 1 .161.121c.17 1.14.8 2.257 1.62 3.289a.147.147 0 0 1-.021.203.14.14 0 0 1-.2-.022c-.833-1.048-1.5-2.214-1.68-3.426a.144.144 0 0 1 .12-.165m4.198 6.089a.14.14 0 0 1 .2-.016l.113.098.14.12a.146.146 0 0 1-.023.24.14.14 0 0 1-.157-.017l-.144-.123-.114-.099a.147.147 0 0 1-.015-.203m.543.463a.14.14 0 0 1 .094-.054.14.14 0 0 1 .105.029c1.17.929 2.596 1.743 4.012 2.325a.144.144 0 0 1 .079.188.14.14 0 0 1-.185.08c-1.438-.591-2.887-1.418-4.08-2.365a.146.146 0 0 1-.025-.203m9.023 3.3a.144.144 0 0 1-.118.166q-.095.016-.19.027a.14.14 0 0 1-.106-.032.14.14 0 0 1-.052-.096.144.144 0 0 1 .125-.16q.09-.01.178-.024a.14.14 0 0 1 .106.026.14.14 0 0 1 .057.093"/>
</svg>
